Newaita/actions/22/tool-measure.svg

<svg height="22" viewBox="0 0 22 22" width="22" xmlns="http://www.w3.org/2000/svg"><g fill="#424242"><path d="m14.554688 6.539062c0 .25-.203126.453126-.457032.453126h-1.816406c-.253906 0-.457031-.203126-.457031-.453126s.203125-.453124.457031-.453124h1.816406c.253906 0 .457032.203124.457032.453124zm0 0"/><path d="m11.824219 2.902344c-.503907 0-.910157.402344-.910157.90625v14.554687c0 .503907.40625.910157.910157.910157h6.367187c.503906 0 .910156-.40625.910156-.910157v-14.554687c0-.503906-.40625-.90625-.910156-.90625zm1.363281 1.816406h3.640625c.25 0 .453125.203125.453125.457031v11.824219c0 .25-.203125.453125-.453125.453125h-3.640625c-.25 0-.453125-.203125-.453125-.453125v-11.824219c0-.253906.203125-.457031.453125-.457031zm0 0"/><path d="m14.554688 8.8125c0 .25-.203126.457031-.457032.457031h-1.816406c-.253906 0-.457031-.207031-.457031-.457031s.203125-.453125.457031-.453125h1.816406c.253906 0 .457032.203125.457032.453125zm0 0"/><path d="m14.554688 11.085938c0 .253906-.203126.457031-.457032.457031h-1.816406c-.253906 0-.457031-.203125-.457031-.457031 0-.25.203125-.453126.457031-.453126h1.816406c.253906 0 .457032.203126.457032.453126zm0 0"/><path d="m14.554688 13.359375c0 .253906-.203126.457031-.457032.457031h-1.816406c-.253906 0-.457031-.203125-.457031-.457031 0-.25.203125-.453125.457031-.453125h1.816406c.253906 0 .457032.203125.457032.453125zm0 0"/><path d="m14.554688 15.636719c0 .25-.203126.453125-.457032.453125h-1.816406c-.253906 0-.457031-.203125-.457031-.453125 0-.253907.203125-.457031.457031-.457031h1.816406c.253906 0 .457032.203124.457032.457031zm0 0"/><g stroke="#000" stroke-width=".264583" transform="matrix(.0429729 0 0 .0429729 0 9.239163)"><path d="m63.539387-62.832713 74.083834-84.628282 74.083835 84.628282zm0 0"/><path d="m63.539387 148.874343 74.083834 84.628282 74.083835-84.628282zm0 0"/></g></g></svg>

<?xml version="1.0" encoding="UTF-8"?>
<svg xmlns="http://www.w3.org/2000/svg" xmlns:xlink="http://www.w3.org/1999/xlink" width="22px" height="22px" viewBox="0 0 22 22" version="1.1">
<g id="surface1">
<path style=" stroke:none;fill-rule:nonzero;fill:rgb(25.882354%,25.882354%,25.882354%);fill-opacity:1;" d="M 14.554688 6.539062 C 14.554688 6.789062 14.351562 6.992188 14.097656 6.992188 L 12.28125 6.992188 C 12.027344 6.992188 11.824219 6.789062 11.824219 6.539062 C 11.824219 6.289062 12.027344 6.085938 12.28125 6.085938 L 14.097656 6.085938 C 14.351562 6.085938 14.554688 6.289062 14.554688 6.539062 Z M 14.554688 6.539062 "/>
<path style=" stroke:none;fill-rule:nonzero;fill:rgb(25.882354%,25.882354%,25.882354%);fill-opacity:1;" d="M 11.824219 2.902344 C 11.320312 2.902344 10.914062 3.304688 10.914062 3.808594 L 10.914062 18.363281 C 10.914062 18.867188 11.320312 19.273438 11.824219 19.273438 L 18.191406 19.273438 C 18.695312 19.273438 19.101562 18.867188 19.101562 18.363281 L 19.101562 3.808594 C 19.101562 3.304688 18.695312 2.902344 18.191406 2.902344 Z M 13.1875 4.71875 L 16.828125 4.71875 C 17.078125 4.71875 17.28125 4.921875 17.28125 5.175781 L 17.28125 17 C 17.28125 17.25 17.078125 17.453125 16.828125 17.453125 L 13.1875 17.453125 C 12.9375 17.453125 12.734375 17.25 12.734375 17 L 12.734375 5.175781 C 12.734375 4.921875 12.9375 4.71875 13.1875 4.71875 Z M 13.1875 4.71875 "/>
<path style=" stroke:none;fill-rule:nonzero;fill:rgb(25.882354%,25.882354%,25.882354%);fill-opacity:1;" d="M 14.554688 8.8125 C 14.554688 9.0625 14.351562 9.269531 14.097656 9.269531 L 12.28125 9.269531 C 12.027344 9.269531 11.824219 9.0625 11.824219 8.8125 C 11.824219 8.5625 12.027344 8.359375 12.28125 8.359375 L 14.097656 8.359375 C 14.351562 8.359375 14.554688 8.5625 14.554688 8.8125 Z M 14.554688 8.8125 "/>
<path style=" stroke:none;fill-rule:nonzero;fill:rgb(25.882354%,25.882354%,25.882354%);fill-opacity:1;" d="M 14.554688 11.085938 C 14.554688 11.339844 14.351562 11.542969 14.097656 11.542969 L 12.28125 11.542969 C 12.027344 11.542969 11.824219 11.339844 11.824219 11.085938 C 11.824219 10.835938 12.027344 10.632812 12.28125 10.632812 L 14.097656 10.632812 C 14.351562 10.632812 14.554688 10.835938 14.554688 11.085938 Z M 14.554688 11.085938 "/>
<path style=" stroke:none;fill-rule:nonzero;fill:rgb(25.882354%,25.882354%,25.882354%);fill-opacity:1;" d="M 14.554688 13.359375 C 14.554688 13.613281 14.351562 13.816406 14.097656 13.816406 L 12.28125 13.816406 C 12.027344 13.816406 11.824219 13.613281 11.824219 13.359375 C 11.824219 13.109375 12.027344 12.90625 12.28125 12.90625 L 14.097656 12.90625 C 14.351562 12.90625 14.554688 13.109375 14.554688 13.359375 Z M 14.554688 13.359375 "/>
<path style=" stroke:none;fill-rule:nonzero;fill:rgb(25.882354%,25.882354%,25.882354%);fill-opacity:1;" d="M 14.554688 15.636719 C 14.554688 15.886719 14.351562 16.089844 14.097656 16.089844 L 12.28125 16.089844 C 12.027344 16.089844 11.824219 15.886719 11.824219 15.636719 C 11.824219 15.382812 12.027344 15.179688 12.28125 15.179688 L 14.097656 15.179688 C 14.351562 15.179688 14.554688 15.382812 14.554688 15.636719 Z M 14.554688 15.636719 "/>
<path style="fill-rule:nonzero;fill:rgb(25.882354%,25.882354%,25.882354%);fill-opacity:1;stroke-width:0.264583;stroke-linecap:butt;stroke-linejoin:miter;stroke:rgb(0%,0%,0%);stroke-opacity:1;stroke-miterlimit:4;" d="M 63.539387 -62.832713 L 137.623221 -147.460995 L 211.707056 -62.832713 Z M 63.539387 -62.832713 " transform="matrix(0.0429729,0,0,0.0429729,0,9.239163)"/>
<path style="fill-rule:nonzero;fill:rgb(25.882354%,25.882354%,25.882354%);fill-opacity:1;stroke-width:0.264583;stroke-linecap:butt;stroke-linejoin:miter;stroke:rgb(0%,0%,0%);stroke-opacity:1;stroke-miterlimit:4;" d="M 63.539387 148.874343 L 137.623221 233.502625 L 211.707056 148.874343 Z M 63.539387 148.874343 " transform="matrix(0.0429729,0,0,0.0429729,0,9.239163)"/>
</g>
</svg>
